Numix/16/status/indicator-keyboard-Sr-4.svg

<?xml version="1.0" encoding="UTF-8" standalone="no"?>
<svg
   xmlns:dc="http://purl.org/dc/elements/1.1/"
   xmlns:cc="http://creativecommons.org/ns#"
   xmlns:rdf="http://www.w3.org/1999/02/22-rdf-syntax-ns#"
   xmlns:svg="http://www.w3.org/2000/svg"
   xmlns="http://www.w3.org/2000/svg"
   xmlns:sodipodi="http://sodipodi.sourceforge.net/DTD/sodipodi-0.dtd"
   xmlns:inkscape="http://www.inkscape.org/namespaces/inkscape"
   viewBox="0 0 16 16"
   id="svg2"
   version="1.1"
   inkscape:version="0.91 r13725"
   sodipodi:docname="indicator-keyboard-Sr-4.svg">
  <metadata
     id="metadata14">
    <rdf:RDF>
      <cc:Work
         rdf:about="">
        <dc:format>image/svg+xml</dc:format>
        <dc:type
           rdf:resource="http://purl.org/dc/dcmitype/StillImage" />
      </cc:Work>
    </rdf:RDF>
  </metadata>
  <defs
     id="defs12" />
  <sodipodi:namedview
     pagecolor="#ffffff"
     bordercolor="#666666"
     borderopacity="1"
     objecttolerance="10"
     gridtolerance="10"
     guidetolerance="10"
     inkscape:pageopacity="0"
     inkscape:pageshadow="2"
     inkscape:window-width="640"
     inkscape:window-height="480"
     id="namedview10"
     showgrid="false"
     inkscape:zoom="14.75"
     inkscape:cx="8"
     inkscape:cy="8"
     inkscape:window-x="65"
     inkscape:window-y="24"
     inkscape:window-maximized="0"
     inkscape:current-layer="svg2" />
  <path
     style="fill:#ececec;fill-opacity:1"
     d="M 1.5996094 0 C 0.71320937 2.9605947e-16 0 0.71320937 0 1.5996094 L 0 14.400391 C 2.9605947e-16 15.286791 0.71320937 16 1.5996094 16 L 14.400391 16 C 15.286791 16 16 15.286791 16 14.400391 L 16 1.5996094 C 16 0.71320937 15.286791 0 14.400391 0 L 1.5996094 0 z M 4.8203125 4.7246094 C 4.9883125 4.7246094 5.1524531 4.7357656 5.3144531 4.7597656 C 5.4764531 4.7837656 5.627625 4.817375 5.765625 4.859375 C 5.909625 4.895375 6.0383438 4.936375 6.1523438 4.984375 C 6.2723437 5.032375 6.3712188 5.0846719 6.4492188 5.1386719 L 6.2324219 5.6503906 C 6.0584219 5.5303906 5.84575 5.4352813 5.59375 5.3632812 C 5.34775 5.2912813 5.0809687 5.2558594 4.7929688 5.2558594 C 4.5949687 5.2558594 4.4121406 5.2763594 4.2441406 5.3183594 C 4.0821406 5.3543594 3.9403125 5.4178125 3.8203125 5.5078125 C 3.7003125 5.5918125 3.6052031 5.6980781 3.5332031 5.8300781 C 3.4672031 5.9620781 3.4335937 6.1225938 3.4335938 6.3085938 C 3.4335938 6.5005938 3.4690156 6.6629219 3.5410156 6.7949219 C 3.6130156 6.9269219 3.7118906 7.0407187 3.8378906 7.1367188 C 3.9698906 7.2327187 4.122875 7.3184844 4.296875 7.3964844 C 4.470875 7.4744844 4.6612344 7.556625 4.8652344 7.640625 C 5.1112344 7.742625 5.3425937 7.8433125 5.5585938 7.9453125 C 5.7805938 8.0473125 5.9708125 8.1686406 6.1328125 8.3066406 C 6.2948125 8.4446406 6.4254844 8.6125469 6.5214844 8.8105469 C 6.6174844 9.0085469 6.6640625 9.2510625 6.6640625 9.5390625 C 6.6640625 10.103063 6.4663125 10.526594 6.0703125 10.808594 C 5.6803125 11.090594 5.1505156 11.230469 4.4785156 11.230469 C 4.2385156 11.230469 4.0183125 11.215547 3.8203125 11.185547 C 3.6223125 11.155547 3.4450625 11.120125 3.2890625 11.078125 C 3.1330625 11.030125 3.0025313 10.981594 2.8945312 10.933594 C 2.7865313 10.885594 2.7025781 10.844594 2.6425781 10.808594 L 2.8398438 10.277344 C 2.8998438 10.313344 2.9800312 10.354344 3.0820312 10.402344 C 3.1840312 10.450344 3.3053594 10.498875 3.4433594 10.546875 C 3.5813594 10.588875 3.7361563 10.624297 3.9101562 10.654297 C 4.0841562 10.684297 4.2763281 10.699219 4.4863281 10.699219 C 4.9723281 10.699219 5.3510937 10.613453 5.6210938 10.439453 C 5.8910938 10.259453 6.0253906 9.970219 6.0253906 9.5742188 C 6.0253906 9.3462187 5.980625 9.1578125 5.890625 9.0078125 C 5.806625 8.8518125 5.6928281 8.7230938 5.5488281 8.6210938 C 5.4048281 8.5130937 5.2406875 8.4235625 5.0546875 8.3515625 C 4.8686875 8.2735625 4.67275 8.1914219 4.46875 8.1074219 C 4.21075 8.0054219 3.9793906 7.9009687 3.7753906 7.7929688 C 3.5713906 7.6849688 3.3979062 7.5655937 3.2539062 7.4335938 C 3.1099062 7.2955937 2.9979219 7.1388438 2.9199219 6.9648438 C 2.8479219 6.7908437 2.8125 6.5875156 2.8125 6.3535156 C 2.8125 5.8195156 2.98975 5.4146719 3.34375 5.1386719 C 3.69775 4.8626719 4.1903125 4.7246094 4.8203125 4.7246094 z M 9.3515625 6.3535156 C 9.5435625 6.3535156 9.7245781 6.3684375 9.8925781 6.3984375 C 10.066578 6.4284375 10.185953 6.4582812 10.251953 6.4882812 L 10.134766 6.9921875 C 10.086766 6.9681875 9.9878907 6.9439219 9.8378906 6.9199219 C 9.6938906 6.8899219 9.5017188 6.875 9.2617188 6.875 C 9.0097187 6.875 8.8063906 6.8936875 8.6503906 6.9296875 C 8.5003906 6.9656875 8.4015156 6.9955312 8.3535156 7.0195312 L 8.3535156 11.095703 L 7.7675781 11.095703 L 7.7675781 6.6582031 C 7.9175781 6.5922031 8.1246719 6.5269375 8.3886719 6.4609375 C 8.6526719 6.3889375 8.9735625 6.3535156 9.3515625 6.3535156 z M 12.457031 8.8417969 L 12.855469 8.8417969 L 12.855469 11.486328 L 13.357422 11.486328 L 13.357422 11.796875 L 12.855469 11.796875 L 12.855469 12.896484 L 12.480469 12.896484 L 12.480469 11.796875 L 10.644531 11.796875 L 10.644531 11.5625 C 10.714731 11.3753 10.810747 11.163687 10.935547 10.929688 C 11.064247 10.695688 11.209241 10.456637 11.369141 10.210938 C 11.529041 9.9652374 11.703425 9.7261874 11.890625 9.4921875 C 12.077825 9.2542875 12.265931 9.0367969 12.457031 8.8417969 z M 12.480469 9.2695312 C 12.343969 9.4099312 12.204853 9.5706063 12.064453 9.7539062 C 11.924053 9.9372063 11.790809 10.129225 11.662109 10.328125 C 11.537309 10.523125 11.419747 10.719069 11.310547 10.917969 C 11.201347 11.116869 11.109256 11.306928 11.035156 11.486328 L 12.480469 11.486328 L 12.480469 9.2695312 z "
     id="path4" />
</svg>

<svg xmlns="http://www.w3.org/2000/svg" viewBox="0 0 16 16">
 <path d="m 1.6 0 c -0.886 0 -1.6 0.713 -1.6 1.6 l 0 12.801 c 0 0.886 0.713 1.6 1.6 1.6 l 12.801 0 c 0.886 0 1.6 -0.713 1.6 -1.6 l 0 -12.801 c 0 -0.886 -0.713 -1.6 -1.6 -1.6 l -12.801 0 z m 3.221 4.725 c 0.168 0 0.332 0.011 0.494 0.035 c 0.162 0.024 0.313 0.058 0.451 0.1 c 0.144 0.036 0.273 0.077 0.387 0.125 c 0.12 0.048 0.219 0.1 0.297 0.154 l -0.217 0.512 c -0.174 -0.12 -0.387 -0.215 -0.639 -0.287 c -0.246 -0.072 -0.513 -0.107 -0.801 -0.107 c -0.198 0 -0.381 0.02 -0.549 0.063 c -0.162 0.036 -0.304 0.099 -0.424 0.189 c -0.12 0.084 -0.215 0.19 -0.287 0.322 c -0.066 0.132 -0.1 0.293 -0.1 0.479 c 0 0.192 0.035 0.354 0.107 0.486 c 0.072 0.132 0.171 0.246 0.297 0.342 c 0.132 0.096 0.285 0.182 0.459 0.26 c 0.174 0.078 0.364 0.16 0.568 0.244 c 0.246 0.102 0.477 0.203 0.693 0.305 c 0.222 0.102 0.412 0.223 0.574 0.361 c 0.162 0.138 0.293 0.306 0.389 0.504 c 0.096 0.198 0.143 0.441 0.143 0.729 c 0 0.564 -0.198 0.988 -0.594 1.27 c -0.39 0.282 -0.92 0.422 -1.592 0.422 c -0.24 0 -0.46 -0.015 -0.658 -0.045 c -0.198 -0.03 -0.375 -0.065 -0.531 -0.107 c -0.156 -0.048 -0.287 -0.097 -0.395 -0.145 c -0.108 -0.048 -0.192 -0.089 -0.252 -0.125 l 0.197 -0.531 c 0.06 0.036 0.14 0.077 0.242 0.125 c 0.102 0.048 0.223 0.097 0.361 0.145 c 0.138 0.042 0.293 0.077 0.467 0.107 c 0.174 0.03 0.366 0.045 0.576 0.045 c 0.486 0 0.865 -0.086 1.135 -0.26 c 0.27 -0.18 0.404 -0.469 0.404 -0.865 c 0 -0.228 -0.045 -0.416 -0.135 -0.566 c -0.084 -0.156 -0.198 -0.285 -0.342 -0.387 c -0.144 -0.108 -0.308 -0.198 -0.494 -0.27 c -0.186 -0.078 -0.382 -0.16 -0.586 -0.244 c -0.258 -0.102 -0.489 -0.206 -0.693 -0.314 c -0.204 -0.108 -0.377 -0.227 -0.521 -0.359 c -0.144 -0.138 -0.256 -0.295 -0.334 -0.469 c -0.072 -0.174 -0.107 -0.377 -0.107 -0.611 c 0 -0.534 0.177 -0.939 0.531 -1.215 c 0.354 -0.276 0.847 -0.414 1.477 -0.414 z m 4.531 1.629 c 0.192 0 0.373 0.015 0.541 0.045 c 0.174 0.03 0.293 0.06 0.359 0.09 l -0.117 0.504 c -0.048 -0.024 -0.147 -0.048 -0.297 -0.072 c -0.144 -0.03 -0.336 -0.045 -0.576 -0.045 c -0.252 0 -0.455 0.019 -0.611 0.055 c -0.15 0.036 -0.249 0.066 -0.297 0.09 l 0 4.076 l -0.586 0 l 0 -4.437 c 0.15 -0.066 0.357 -0.131 0.621 -0.197 c 0.264 -0.072 0.585 -0.107 0.963 -0.107 z m 3.105 2.488 l 0.398 0 l 0 2.645 l 0.502 0 l 0 0.311 l -0.502 0 l 0 1.1 l -0.375 0 l 0 -1.1 l -1.836 0 l 0 -0.234 c 0.07 -0.187 0.166 -0.399 0.291 -0.633 c 0.129 -0.234 0.274 -0.473 0.434 -0.719 c 0.16 -0.246 0.334 -0.485 0.521 -0.719 c 0.187 -0.238 0.375 -0.455 0.566 -0.65 z m 0.023 0.428 c -0.136 0.14 -0.276 0.301 -0.416 0.484 c -0.14 0.183 -0.274 0.375 -0.402 0.574 c -0.125 0.195 -0.242 0.391 -0.352 0.59 c -0.109 0.199 -0.201 0.389 -0.275 0.568 l 1.445 0 l 0 -2.217 z" style="fill:#ececec;fill-opacity:1"/>
</svg>
